X:16021
T:Stoney Step Hornpipe. JC.122
M:C|
L:1/8
Q:145
S:John Clare,Poet,Helpston. (1793-1864)
R:Hornpipe
O:England
A:Northamptonshire
N:
Z:P Headford
K:G
GBdg agfg|ecBA GFED|ECB,C A,CA,B|ABcA GFED|!
GBdg agfg|ecBA GFED|ECB,C A,CA,c|BAGFG2G2:|!
|:B,CC2EFG2|ABcA GFED|B,CD2EFG2|gfgee2d2|!
ecBc dBAG|ABcA GFED|ECB,C A,CA,c|BAGFG2G2:|]
